public/assets/images/award/03.svg

<svg width="74" height="31" viewBox="0 0 74 31" fill="none" xmlns="http://www.w3.org/2000/svg">
<path fill-rule="evenodd" clip-rule="evenodd" d="M42.7012 21.5694H43.4275L43.2818 20.334L42.7012 21.5694ZM46.9126 20.1172H46.4044L46.2587 20.7702H46.6945C47.0579 20.7702 47.276 20.6978 47.3484 20.4801C47.3484 20.1896 47.2027 20.1172 46.9126 20.1172ZM35.0754 21.5694H35.8018L35.6569 20.334L35.0754 21.5694Z" fill="#0C1018"/>
<path fill-rule="evenodd" clip-rule="evenodd" d="M73.2737 17.8642C73.2737 13.5071 71.8214 12.926 69.5696 12.0545C72.1116 11.401 73.2013 9.29484 73.2013 6.75334C73.2013 2.5415 70.805 0.580639 63.6146 0.580639H53.3029V5.59122L50.761 0.507796H36.6733L35.4387 2.90445V0.580639H15.5408V1.30696C14.1614 0.508216 12.273 0 9.87632 0C4.42994 0 0.435794 2.32382 0.435794 6.97145C0.435794 15.2503 12.9265 12.9989 12.9265 16.2667C12.9265 17.284 11.7648 17.8646 10.022 17.8646C9.29568 17.8646 8.56936 17.7189 7.9883 17.3564C7.40766 16.993 6.97145 16.4124 6.8266 15.6137H0C0.145265 19.5345 3.84889 22.8752 9.58579 22.8752C15.6132 22.8752 19.7526 20.479 19.7526 15.3951C19.7526 7.47966 7.26156 9.51295 7.26156 6.24513C7.26156 5.5188 7.98788 5.01058 9.58537 5.01058C10.2389 5.01058 10.8923 5.15585 11.401 5.44638C11.9096 5.66449 12.2726 6.1727 12.4178 6.89903H19.1716C19.1716 6.68092 19.0987 6.46323 19.0987 6.31797H21.9312V22.2946H25.7077L21.5682 30.6458H35.1482L36.6733 26.6517H50.4709L52.1412 30.6458H65.9393L60.4201 19.7526V14.7416H62.5986C65.9393 14.7416 66.4475 15.6861 66.4475 18.5181C66.4475 20.4785 66.5932 21.8588 66.8109 22.2946H74V21.6407C73.1284 21.6407 73.2737 20.6967 73.2737 17.8642ZM41.7571 9.00473C41.9744 8.4961 43.0641 5.59164 43.0641 5.59164L43.4999 4.50237C43.4999 4.50237 45.0245 8.49652 45.1702 9.00473H51.0528C51.0528 9.00473 46.8405 11.6191 46.3323 11.9096C46.5504 12.4902 48.1475 16.5568 48.1475 16.5568C48.1475 16.5568 43.9361 13.9429 43.5003 13.7248C43.0645 13.9429 38.8522 16.5568 38.8522 16.5568C38.8522 16.5568 40.4501 12.4902 40.6678 11.9096C40.1596 11.6191 35.9478 9.00473 35.9478 9.00473H41.7571ZM29.0483 6.31755H33.7684L29.0483 15.6857V6.31755ZM35.8745 22.8028V22.2946H34.7124L34.4947 22.8028H33.405L35.2206 19.3169H36.3827L37.0362 22.8028H35.8745ZM39.4329 22.8028V20.7691L38.6337 22.8028H37.5448L37.2543 19.3169H38.4164V21.423L39.2148 19.3169H40.1588V21.423L40.9571 19.3169H42.0468L40.5946 22.8028H39.4329ZM43.4994 22.8028L43.427 22.2946H42.2649L42.0468 22.8028H40.9571L42.8451 19.3169H44.0072L44.5879 22.8028H43.4994ZM48.0747 22.6571V22.8028H46.9125C46.9125 22.6571 46.9125 22.4394 46.985 22.1489C47.0582 21.7131 46.985 21.5682 46.4767 21.5682H46.1142L45.8961 22.8028H44.8064L45.3879 19.3169H47.0582C48.2203 19.3169 48.5104 19.607 48.438 20.2609C48.3648 20.6967 48.0747 20.9872 47.6389 21.1325C48.0022 21.2773 48.2203 21.3506 48.0747 22.0765C48.0022 22.5123 47.929 22.6571 48.0747 22.6571ZM51.9231 20.9868C51.705 22.2941 50.9067 22.8024 49.7446 22.8024H48.2923L48.873 19.3164H50.3985C51.5606 19.3164 52.1412 19.8246 51.9231 20.9868ZM63.2525 9.94875H60.4201V5.66406H63.7607C65.4311 5.66406 66.6652 6.39039 66.6652 7.91546C66.6652 9.44011 63.2525 9.94875 63.2525 9.94875Z" fill="#0C1018"/>
<path fill-rule="evenodd" clip-rule="evenodd" d="M50.1078 20.1172H49.8897L49.5264 21.9324H49.8173C50.3255 21.9324 50.6881 21.7143 50.7605 20.9884C50.9062 20.334 50.6885 20.1172 50.1078 20.1172Z" fill="#0C1018"/>
<path fill-rule="evenodd" clip-rule="evenodd" d="M42.1914 9.44044L42.119 9.51286H37.7619C38.2701 9.80339 41.3927 11.6914 41.3927 11.6914C41.3927 11.6914 40.0857 14.814 39.9404 15.2498C40.303 15.0317 43.4988 13.0712 43.4988 13.0712C43.4988 13.0712 46.6938 15.0321 47.0572 15.2498C46.9115 14.814 45.6774 11.6914 45.6774 11.6914C45.6774 11.6914 48.7275 9.80339 49.1633 9.51286H44.8053C44.8053 9.51286 43.6432 6.3903 43.4984 6.02734C43.3535 6.39072 42.1914 9.44044 42.1914 9.44044ZM35.1475 18.4452H51.9225V18.0102H35.1475V18.4452ZM32.5332 23.9648H52.6488V23.529H32.5332V23.9648Z" fill="white"/>
<path fill-rule="evenodd" clip-rule="evenodd" d="M0.872074 29.628H2.10661V29.1931H0.872074V28.6116H2.25188V28.1758H0.436279V30.7177H2.25188V30.2819H0.872074V29.628Z" fill="#0C1018"/>
<path fill-rule="evenodd" clip-rule="evenodd" d="M4.50261 28.1744H3.99439C3.99439 28.1744 3.48618 28.8283 3.41375 29.046C3.34091 28.8279 2.90512 28.1744 2.90512 28.1744H2.32406C2.32406 28.1744 3.1228 29.3365 3.1228 29.4098C3.1228 29.4822 2.25121 30.7167 2.25121 30.7167H2.83227C2.83227 30.7167 3.34049 29.9184 3.41333 29.7727C3.48576 29.9184 3.99397 30.7167 3.99397 30.7167H4.50261C4.50261 30.7167 3.70386 29.4822 3.70386 29.4098C3.70386 29.3365 4.50261 28.1744 4.50261 28.1744ZM6.24537 29.7723C6.17294 30.2805 5.80957 30.3529 5.66431 30.3529C5.22851 30.3529 5.01082 29.9904 5.01082 29.4098C5.01082 28.8283 5.22893 28.5382 5.66431 28.5382C5.88241 28.5382 6.17294 28.6106 6.24537 28.974V29.0464H6.68116V28.974C6.60874 28.5382 6.31821 28.1024 5.66431 28.1024C4.93798 28.1024 4.50261 28.6106 4.50261 29.4098C4.50261 30.4262 5.08367 30.7887 5.59188 30.7887C5.80999 30.7887 6.53589 30.7163 6.68116 29.7723V29.6999H6.24537V29.7723ZM7.40748 29.627H8.64202V29.1921H7.40748V28.6106H8.71445V28.1748H6.97127V30.7167H8.78687V30.2809H7.40706L7.40748 29.627ZM9.44077 28.1744H9.00498V30.7163H10.6025V30.2805H9.44077V28.1744ZM11.2564 28.1744H10.7482V30.7163H12.3456V30.2805H11.2564V28.1744ZM12.9991 29.627H14.2337V29.1921H12.9991V28.6106H14.3789V28.1748H12.5633V30.7167H14.3789V30.2809H12.9991V29.627ZM16.1217 28.1744V29.918C15.9764 29.5546 15.1048 28.1744 15.1048 28.1744H14.669V30.7163H15.1048V28.9007C15.2501 29.2641 16.1217 30.7163 16.1217 30.7163H16.5575V28.1744H16.1217ZM18.5183 29.7723C18.4459 30.2805 18.0826 30.3529 17.9377 30.3529C17.5019 30.3529 17.2842 29.9904 17.2842 29.4098C17.2842 28.8283 17.5023 28.5382 17.9377 28.5382C18.1554 28.5382 18.4463 28.6106 18.5183 28.974V29.0464H18.9541V28.974C18.8813 28.5382 18.5912 28.1024 17.9373 28.1024C17.2834 28.1024 16.848 28.6106 16.848 29.4098C16.848 30.4262 17.3566 30.7887 17.9373 30.7887C18.155 30.7887 18.8813 30.7163 18.9541 29.7723L19.0266 29.6999H18.5908L18.5183 29.7723ZM19.6805 30.2805V29.6266H20.915V29.1917H19.6805V28.6102H21.0603V28.1744H19.2447V30.7163H21.0603V30.2805H19.6805ZM1.3072 27.4485C1.81584 27.4485 2.25121 27.2304 2.25121 26.6502C2.25121 26.2868 2.10595 25.9963 1.743 25.9238L1.08952 25.7782C0.871409 25.7057 0.87141 25.6333 0.87141 25.56C0.87141 25.2699 1.08952 25.1975 1.3072 25.1975C1.45247 25.1975 1.743 25.1975 1.81584 25.6333V25.7057H2.25164V25.6333C2.17921 25.0518 1.88868 24.7617 1.23478 24.7617C0.653723 24.7617 0.363193 25.1975 0.363193 25.56C0.363193 25.7782 0.508458 26.1415 0.944253 26.2139L1.38005 26.3596C1.81584 26.4321 1.81584 26.5045 1.81584 26.7222C1.81584 27.0123 1.45289 27.0123 1.3072 27.0123C1.16194 27.0123 0.726145 26.9398 0.726145 26.5041V26.4316H0.290771V26.5041C0.290771 26.7222 0.363193 27.0123 0.581301 27.158C0.726566 27.3036 0.871831 27.4485 1.3072 27.4485ZM4.35734 26.9403H2.97754V26.2864H4.2845V25.8514H2.97754V25.2699H4.35734V24.8341H2.54174V27.3761H4.35734V26.9403ZM5.08367 26.3596H5.80999C6.10052 26.3596 6.10052 26.5045 6.10052 26.7222C6.10052 26.7222 6.10052 27.158 6.17294 27.3036V27.3761H6.68116V27.158C6.60874 27.158 6.60874 27.158 6.60874 27.0123L6.53632 26.5773C6.53632 26.2864 6.46389 26.2139 6.39105 26.1415C6.46347 25.9958 6.60874 25.8514 6.60874 25.56C6.60874 25.0518 6.31821 24.8337 5.80999 24.8337H4.64787V27.3756H5.08367V26.3596ZM6.17294 25.56C6.17294 25.851 6.02768 25.9234 5.73715 25.9234H5.08367V25.2695H5.80999C5.95484 25.2699 6.17294 25.2699 6.17294 25.56ZM8.35149 24.8341C8.35149 24.8341 7.84286 26.4321 7.77044 26.7222C7.62517 26.4321 7.11695 24.8341 7.11695 24.8341H6.60832L7.55233 27.3761H7.98812L8.85971 24.8341H8.35149ZM9.0054 27.3761H9.44077V24.8341H9.0054V27.3761ZM10.821 27.4485C11.0387 27.4485 11.765 27.3761 11.9103 26.4321V26.3596H11.4745V26.4321C11.3292 26.9403 11.0387 27.0127 10.8934 27.0127C10.4576 27.0127 10.1671 26.7226 10.1671 26.0687C10.1671 25.5605 10.4576 25.1979 10.8934 25.1979C11.1115 25.1979 11.4021 25.2704 11.4745 25.6337V25.7062H11.9103V25.6337C11.8374 25.1979 11.4745 24.7621 10.8934 24.7621C10.1671 24.7621 9.73172 25.2704 9.73172 26.0691C9.7313 27.0855 10.3124 27.4485 10.821 27.4485ZM13.9436 26.9403H12.5638V26.2864H13.8707V25.8514H12.5638V25.2699H13.9436V24.8341H12.128V27.3761H13.9436V26.9403Z" fill="#0C1018"/>
</svg>

<svg xmlns="http://www.w3.org/2000/svg" width="74" height="31" fill="none" viewBox="0 0 74 31"><path fill="#0c1018" fill-rule="evenodd" d="M42.701 21.57h.727l-.146-1.236zm4.212-1.453h-.509l-.145.653h.435c.364 0 .582-.072.654-.29 0-.29-.145-.363-.435-.363M35.075 21.57h.727l-.145-1.235z" clip-rule="evenodd"/><path fill="#0c1018" fill-rule="evenodd" d="M73.274 17.864c0-4.357-1.453-4.938-3.704-5.81 2.542-.653 3.631-2.76 3.631-5.3 0-4.212-2.396-6.173-9.586-6.173H53.303v5.01L50.76.508H36.673L35.44 2.904V.581h-19.9v.726C14.16.508 12.273 0 9.876 0 4.43 0 .436 2.324.436 6.971c0 8.28 12.49 6.028 12.49 9.296 0 1.017-1.161 1.598-2.904 1.598-.726 0-1.453-.146-2.034-.509s-1.017-.944-1.161-1.742H0c.145 3.92 3.849 7.261 9.586 7.261 6.027 0 10.167-2.396 10.167-7.48 0-7.915-12.491-5.882-12.491-9.15 0-.726.726-1.234 2.323-1.234.654 0 1.307.145 1.816.435.509.218.872.727 1.017 1.453h6.754c0-.218-.073-.436-.073-.581h2.832v15.977h3.777l-4.14 8.35h13.58l1.525-3.993h13.798l1.67 3.994H65.94l-5.52-10.893v-5.011h2.18c3.34 0 3.849.944 3.849 3.776 0 1.96.145 3.34.363 3.777H74v-.654c-.872 0-.726-.944-.726-3.777m-31.517-8.86c.217-.508 1.307-3.412 1.307-3.412l.436-1.09s1.525 3.995 1.67 4.503h5.883s-4.212 2.614-4.72 2.905c.217.58 1.815 4.647 1.815 4.647s-4.212-2.614-4.648-2.832c-.435.218-4.648 2.832-4.648 2.832s1.598-4.067 1.816-4.647c-.508-.29-4.72-2.905-4.72-2.905zM29.048 6.319h4.72l-4.72 9.368zm6.826 16.485v-.508h-1.162l-.217.508h-1.09l1.816-3.486h1.162l.653 3.486zm3.559 0V20.77l-.8 2.034h-1.088l-.29-3.486h1.161v2.106l.799-2.106h.944v2.106l.798-2.106h1.09l-1.452 3.486zm4.066 0-.072-.508h-1.162l-.218.508h-1.09l1.888-3.486h1.162l.58 3.486zm4.576-.146v.146h-1.163c0-.146 0-.364.073-.654.073-.436 0-.58-.508-.58h-.363l-.218 1.234h-1.09l.582-3.486h1.67c1.162 0 1.452.29 1.38.944-.073.436-.363.726-.8.872.364.144.582.218.437.944-.073.435-.146.58 0 .58m3.848-1.67c-.218 1.307-1.016 1.815-2.178 1.815h-1.453l.581-3.486h1.526c1.162 0 1.742.509 1.524 1.67m11.33-11.038H60.42V5.664h3.34c1.671 0 2.905.726 2.905 2.251S63.252 9.95 63.252 9.95" clip-rule="evenodd"/><path fill="#0c1018" fill-rule="evenodd" d="M50.108 20.117h-.218l-.364 1.815h.291c.508 0 .871-.218.944-.944.145-.654-.073-.87-.653-.87" clip-rule="evenodd"/><path fill="#fff" fill-rule="evenodd" d="m42.191 9.44-.072.073h-4.357c.508.29 3.63 2.178 3.63 2.178s-1.306 3.123-1.452 3.559c.363-.218 3.559-2.179 3.559-2.179s3.195 1.961 3.558 2.179c-.146-.436-1.38-3.559-1.38-3.559s3.05-1.888 3.486-2.178h-4.358s-1.162-3.123-1.307-3.486a845 845 0 0 0-1.307 3.413m-7.044 9.005h16.776v-.435H35.148zm-2.614 5.52H52.65v-.436H32.533z" clip-rule="evenodd"/><path fill="#0c1018" fill-rule="evenodd" d="M.872 29.628h1.235v-.435H.872v-.581h1.38v-.436H.436v2.542h1.816v-.436H.872z" clip-rule="evenodd"/><path fill="#0c1018" fill-rule="evenodd" d="M4.503 28.174h-.509s-.508.654-.58.872c-.073-.218-.509-.872-.509-.872h-.58s.798 1.163.798 1.236-.872 1.307-.872 1.307h.581s.508-.799.581-.944c.073.145.581.944.581.944h.509s-.8-1.235-.8-1.307c0-.073.8-1.236.8-1.236m1.742 1.598c-.072.509-.435.58-.58.58-.436 0-.654-.362-.654-.942q0-.873.653-.872c.218 0 .509.073.581.436v.072h.436v-.072c-.072-.436-.363-.872-1.017-.872-.726 0-1.161.509-1.161 1.308 0 1.016.58 1.379 1.089 1.379.218 0 .944-.073 1.09-1.017V29.7h-.437zm1.162-.145h1.235v-.435H7.407v-.581h1.307v-.436H6.971v2.542h1.816v-.436h-1.38zm2.034-1.453h-.436v2.542h1.597v-.436h-1.16zm1.815 0h-.508v2.542h1.598v-.436h-1.09zM13 29.627h1.235v-.435H13v-.581h1.38v-.436h-1.816v2.542h1.816v-.436H13zm3.123-1.453v1.744c-.146-.363-1.017-1.744-1.017-1.744h-.436v2.542h.436v-1.815c.145.363 1.017 1.815 1.017 1.815h.436v-2.542zm2.396 1.598c-.072.509-.435.58-.58.58-.436 0-.654-.362-.654-.942q0-.873.654-.872c.217 0 .508.073.58.436v.072h.436v-.072c-.073-.436-.363-.872-1.017-.872s-1.089.509-1.089 1.308c0 1.016.509 1.379 1.09 1.379.217 0 .943-.073 1.016-1.017l.073-.072h-.436zm1.162.509v-.654h1.235v-.435H19.68v-.582h1.38v-.436h-1.815v2.542h1.815v-.436zM1.307 27.449c.509 0 .944-.219.944-.799 0-.363-.145-.654-.508-.726l-.653-.146c-.22-.072-.22-.145-.22-.218 0-.29.219-.362.436-.362.145 0 .436 0 .509.435v.073h.436v-.073c-.073-.581-.363-.871-1.017-.871-.581 0-.872.436-.872.798 0 .218.145.582.581.654l.436.146c.436.072.436.145.436.362 0 .29-.363.29-.509.29-.145 0-.58-.072-.58-.508v-.072H.29v.072c0 .218.072.508.29.654.146.146.29.29.726.29m3.05-.509h-1.38v-.654h1.308v-.435H2.978v-.581h1.38v-.436H2.541v2.542h1.815zm.727-.58h.726c.29 0 .29.145.29.362 0 0 0 .436.073.582v.072h.508v-.218c-.072 0-.072 0-.072-.146l-.073-.435c0-.29-.072-.363-.145-.436.072-.145.218-.29.218-.581 0-.508-.29-.726-.799-.726H4.648v2.542h.436zm1.089-.8c0 .291-.145.363-.436.363h-.653v-.653h.726c.145 0 .363 0 .363.29m2.178-.726s-.508 1.598-.58 1.888c-.146-.29-.654-1.888-.654-1.888h-.509l.944 2.542h.436l.872-2.542zm.654 2.542h.436v-2.542h-.436zm1.816.072c.218 0 .944-.072 1.09-1.016v-.072h-.436v.072c-.146.508-.436.58-.582.58-.435 0-.726-.29-.726-.943 0-.508.29-.871.726-.871.218 0 .51.072.582.436v.072h.435v-.072c-.073-.436-.435-.872-1.017-.872-.726 0-1.161.508-1.161 1.307 0 1.017.58 1.38 1.089 1.38m3.123-.508h-1.38v-.654h1.307v-.435h-1.307v-.581h1.38v-.436h-1.816v2.542h1.816z" clip-rule="evenodd"/></svg>
